material/.icons/material/bug-check-outline.svg

<svg xmlns="http://www.w3.org/2000/svg" viewBox="0 0 24 24"><path d="M18 7h-2.81c-.45-.8-1.07-1.5-1.82-2L15 3.41 13.59 2l-2.17 2.17a6.002 6.002 0 00-2.83 0L6.41 2 5 3.41 6.62 5c-.75.5-1.36 1.21-1.81 2H2v2h2.09c-.06.33-.09.66-.09 1v1H2v2h2v1c0 .34.03.67.09 1H2v2h2.81A6.002 6.002 0 0012 19.65V19c0-.57.09-1.14.25-1.69-.66.45-1.45.69-2.25.69a4 4 0 01-4-4v-4a4 4 0 014-4 4 4 0 014 4v4c0 .19 0 .39-.05.58.59-.54 1.29-.96 2.05-1.23V13h2v-2h-2v-1c0-.34-.03-.67-.09-1H18V7m3.34 9l-3.59 3.59L16.16 18 15 19.16l2.75 3 4.75-4.75L21.34 16M12 9v2H8V9h4m0 4v2H8v-2h4z"/></svg>

<?xml version="1.0" encoding="UTF-8"?><!DOCTYPE svg PUBLIC "-//W3C//DTD SVG 1.1//EN" "http://www.w3.org/Graphics/SVG/1.1/DTD/svg11.dtd"><svg xmlns="http://www.w3.org/2000/svg" xmlns:xlink="http://www.w3.org/1999/xlink" version="1.1" id="mdi-bug-check-outline" width="24" height="24" viewBox="0 0 24 24"><path d="M18,7H15.19C14.74,6.2 14.12,5.5 13.37,5L15,3.41L13.59,2L11.42,4.17C10.96,4.06 10.5,4 10,4C9.5,4 9.05,4.06 8.59,4.17L6.41,2L5,3.41L6.62,5C5.87,5.5 5.26,6.21 4.81,7H2V9H4.09C4.03,9.33 4,9.66 4,10V11H2V13H4V14C4,14.34 4.03,14.67 4.09,15H2V17H4.81C6.26,19.5 9.28,20.61 12,19.65C12,19.43 12,19.22 12,19C12,18.43 12.09,17.86 12.25,17.31C11.59,17.76 10.8,18 10,18A4,4 0 0,1 6,14V10A4,4 0 0,1 10,6A4,4 0 0,1 14,10V14C14,14.19 14,14.39 13.95,14.58C14.54,14.04 15.24,13.62 16,13.35V13H18V11H16V10C16,9.66 15.97,9.33 15.91,9H18V7M21.34,16L17.75,19.59L16.16,18L15,19.16L17.75,22.16L22.5,17.41L21.34,16M12,9V11H8V9H12M12,13V15H8V13H12Z" /></svg>
